X: 21065
T: Junkie Train Rumble
R: reel
M: 4/4
K: Dmajor
|:Addf fdBG|AddA ffAe|ddAB eG G2|ABde gfed|
Addf fdBG|AddA ffAe|ddAB ddGA|eddA ddcB:|
|:f2 dA GAAA|fdAd- ddde|g3 f d2 BG|ABde gdeg|
f2 dA GAAA|fdAd- dgfe|ddAB ddGA|eddA ddcB:|
dA A2 dAAf|eA A2 eAAg|fA A2 fAfA|gB B2 gBdf|
dA A2 dAAf|eA A2 ffAe|ddAB ddGA|eddA ddcB|
dA A2 dAAf|_eA A2 _eAAg|=eA A2 eAAf|gf=fe fe_ed|
Add^f fdBG|AddA ffAe|ddAB ddGA|eddA dd d2||

